usr/share/icons/biglinux-icons-material/24/actions/vcs-branch-delete.svg

<svg xmlns="http://www.w3.org/2000/svg" id="svg24" version="1.1" viewBox="0 0 24 24" width="24" height="24">
  <style id="current-color-scheme" type="text/css">.ColorScheme-Text {
            color:#dedede;
        }
        .ColorScheme-NegativeText {
            color:#da4453;
        }</style>
  <g transform="translate(1,1)">
    <g stroke-linecap="square">
      <g id="g10" class="ColorScheme-Text" fill="currentColor">
        <path id="path2" d="M 5.5,3 A 2.5,2.5 0 0 0 3,5.5 2.5,2.5 0 0 0 5.5,8 2.5,2.5 0 0 0 8,5.5 2.5,2.5 0 0 0 5.5,3 Z m 0,1 A 1.5,1.5 0 0 1 7,5.5 1.5,1.5 0 0 1 5.5,7 1.5,1.5 0 0 1 4,5.5 1.5,1.5 0 0 1 5.5,4 Z"/>
        <path id="path4" d="m5.5 14a2.5 2.5 0 0 0-2.5 2.5 2.5 2.5 0 0 0 2.5 2.5 2.5 2.5 0 0 0 2.5-2.5 2.5 2.5 0 0 0-2.5-2.5zm0 1a1.5 1.5 0 0 1 1.5 1.5 1.5 1.5 0 0 1-1.5 1.5 1.5 1.5 0 0 1-1.5-1.5 1.5 1.5 0 0 1 1.5-1.5z"/>
        <path id="path6" d="m5 7h1v8h-1z"/>
        <path id="path8" d="m15 7v2a1 1 0 0 1-1 1h-7a2 2 0 0 0-0.0488281 0 2 2 0 0 0-1.9511719 2h1a1 1 0 0 1 1-1h7a2 2 0 0 0 0.04883 0 2 2 0 0 0 1.95117-2v-2z"/>
      </g>
      <path id="path12" class="ColorScheme-NegativeText" d="m15.5 3a2.5 2.5 0 0 0-2.5 2.5 2.5 2.5 0 0 0 2.5 2.5 2.5 2.5 0 0 0 2.5-2.5 2.5 2.5 0 0 0-2.5-2.5zm0 1a1.5 1.5 0 0 1 1.5 1.5 1.5 1.5 0 0 1-1.5 1.5 1.5 1.5 0 0 1-1.5-1.5 1.5 1.5 0 0 1 1.5-1.5z" fill="currentColor"/>
      <g id="g18" shape-rendering="auto">
        <g id="path14">
          <path id="path871" d="m11.500107 12.500107 6 6" color="#da4453" color-rendering="auto" dominant-baseline="auto" image-rendering="auto" solid-color="#000000" stop-color="#da4453"/>
          <path id="path873" class="ColorScheme-NegativeText" d="m11.5 11.792969-0.707031 0.707031 0.353515 0.353516 6 6 0.353516 0.353515 0.707031-0.707031-0.353515-0.353516-6-6-0.353516-0.353515z" color="#da4453" color-rendering="auto" dominant-baseline="auto" fill="currentColor" image-rendering="auto" solid-color="#000000" stop-color="#000000"/>
        </g>
        <g id="path16">
          <path id="path877" d="m17.500107 12.500107-6 6" color="#da4453" color-rendering="auto" dominant-baseline="auto" image-rendering="auto" solid-color="#000000" stop-color="#da4453"/>
          <path id="path879" class="ColorScheme-NegativeText" d="m17.5 11.792969-0.353516 0.353515-6 6-0.353515 0.353516 0.707031 0.707031 0.353516-0.353515 6-6 0.353515-0.353516-0.707031-0.707031z" color="#da4453" color-rendering="auto" dominant-baseline="auto" fill="currentColor" image-rendering="auto" solid-color="#da4453" stop-color="#000000"/>
        </g>
      </g>
    </g>
  </g>
</svg>

<svg xmlns="http://www.w3.org/2000/svg" id="svg24" width="24" height="24" version="1.1"><style id="current-color-scheme" type="text/css">.ColorScheme-NegativeText{color:#da4453}</style><g stroke-linecap="square" transform="translate(1 1)"><g id="g10" fill="currentColor" style="color:#dedede"><path id="path2" d="M5.5 3A2.5 2.5 0 0 0 3 5.5 2.5 2.5 0 0 0 5.5 8 2.5 2.5 0 0 0 8 5.5 2.5 2.5 0 0 0 5.5 3Zm0 1A1.5 1.5 0 0 1 7 5.5 1.5 1.5 0 0 1 5.5 7 1.5 1.5 0 0 1 4 5.5 1.5 1.5 0 0 1 5.5 4Z"/><path id="path4" d="M5.5 14A2.5 2.5 0 0 0 3 16.5 2.5 2.5 0 0 0 5.5 19 2.5 2.5 0 0 0 8 16.5 2.5 2.5 0 0 0 5.5 14zm0 1A1.5 1.5 0 0 1 7 16.5 1.5 1.5 0 0 1 5.5 18 1.5 1.5 0 0 1 4 16.5 1.5 1.5 0 0 1 5.5 15z"/><path id="path6" d="M5 7h1v8H5z"/><path id="path8" d="M15 7v2a1 1 0 0 1-1 1H7a2 2 0 0 0-.049 0A2 2 0 0 0 5 12h1a1 1 0 0 1 1-1h7a2 2 0 0 0 .049 0A2 2 0 0 0 16 9V7z"/></g><path id="path12" fill="currentColor" d="M15.5 3A2.5 2.5 0 0 0 13 5.5 2.5 2.5 0 0 0 15.5 8 2.5 2.5 0 0 0 18 5.5 2.5 2.5 0 0 0 15.5 3zm0 1A1.5 1.5 0 0 1 17 5.5 1.5 1.5 0 0 1 15.5 7 1.5 1.5 0 0 1 14 5.5 1.5 1.5 0 0 1 15.5 4z" class="ColorScheme-NegativeText"/><g id="g18" shape-rendering="auto"><g id="path14"><path id="path871" d="m11.5 12.5 6 6" color="#da4453" color-rendering="auto" dominant-baseline="auto" image-rendering="auto" stop-color="#da4453"/><path id="path873" fill="currentColor" d="m11.5 11.793-.707.707.353.354 6 6 .354.353.707-.707-.353-.354-6-6-.354-.353z" class="ColorScheme-NegativeText" color="#da4453" color-rendering="auto" dominant-baseline="auto" image-rendering="auto" stop-color="#000"/></g><g id="path16"><path id="path877" d="m17.5 12.5-6 6" color="#da4453" color-rendering="auto" dominant-baseline="auto" image-rendering="auto" stop-color="#da4453"/><path id="path879" fill="currentColor" d="m17.5 11.793-.354.353-6 6-.353.354.707.707.354-.353 6-6 .353-.354-.707-.707z" class="ColorScheme-NegativeText" color="#da4453" color-rendering="auto" dominant-baseline="auto" image-rendering="auto" stop-color="#000"/></g></g></g></svg>
